packages/foundations/assets/icons/functional/images/business & payment/shopping_cart_28.svg

<svg width="28" height="28" viewBox="0 0 28 28" fill="none" xmlns="http://www.w3.org/2000/svg">
<g clip-path="url(#clip0_184_137)">
<path fill-rule="evenodd" clip-rule="evenodd" d="M20.4477 25.485C21.2427 25.485 21.8847 24.843 21.8847 24.078C21.8847 23.283 21.2427 22.641 20.4477 22.641C19.6527 22.641 19.0407 23.283 19.0407 24.078C19.0407 24.843 19.6527 25.485 20.4477 25.485ZM10.3847 25.485C11.1797 25.485 11.8217 24.843 11.8217 24.078C11.8217 23.283 11.1797 22.641 10.3847 22.641C9.58971 22.641 8.97871 23.283 8.97871 24.078C8.97871 24.843 9.58971 25.485 10.3847 25.485ZM4.54371 2.51601C5.75071 2.51601 6.80271 3.35801 7.02671 4.53601L7.16671 5.15401H23.8347C24.9577 5.15401 25.7717 6.22001 25.5467 7.25901L24.0317 13.203C23.8067 14.242 22.9657 15.028 21.9267 15.224L9.52271 16.543L9.94671 18.503C10.0307 18.895 10.3967 19.148 10.7887 19.148H21.2257C21.7027 19.148 22.0957 19.541 22.0957 20.018C22.0957 20.495 21.7027 20.888 21.2257 20.888H10.8017C9.45471 20.888 8.47171 20.046 8.24771 18.868L5.41371 5.09701C5.27671 4.50701 4.90871 4.25501 4.54371 4.25501H3.28571C3.0553 4.25396 2.83462 4.16196 2.67169 3.99903C2.50876 3.83611 2.41676 3.61543 2.41571 3.38501C2.41571 2.90801 2.80871 2.51501 3.28571 2.51501L4.54371 2.51601ZM23.8347 6.89401H7.51871L9.14571 14.804L21.7027 13.484C22.0107 13.4 22.2357 13.147 22.3197 12.81L23.8347 6.89401Z" fill="#1A1C1F"/>
</g>
<defs>
<clipPath id="clip0_184_137">
<rect width="28" height="28" fill="white"/>
</clipPath>
</defs>
</svg>

<svg xmlns="http://www.w3.org/2000/svg" width="28" height="28" fill="none"><g clip-path="url(#a)"><path fill="#1A1C1F" fill-rule="evenodd" d="M20.448 25.485c.795 0 1.437-.642 1.437-1.407 0-.795-.642-1.437-1.437-1.437s-1.407.642-1.407 1.437c0 .765.612 1.407 1.407 1.407m-10.063 0c.795 0 1.437-.642 1.437-1.407 0-.795-.642-1.437-1.437-1.437s-1.406.642-1.406 1.437c0 .765.61 1.407 1.406 1.407M4.544 2.516c1.207 0 2.259.842 2.483 2.02l.14.618h16.668c1.123 0 1.937 1.066 1.712 2.105l-1.515 5.944c-.225 1.039-1.066 1.825-2.105 2.021L9.523 16.543l.424 1.96c.084.392.45.645.842.645h10.437c.477 0 .87.393.87.87s-.393.87-.87.87H10.802c-1.347 0-2.33-.842-2.554-2.02L5.414 5.097c-.137-.59-.505-.842-.87-.842H3.286a.874.874 0 0 1-.87-.87c0-.477.393-.87.87-.87zm19.29 4.378H7.52l1.627 7.91 12.557-1.32c.308-.084.533-.337.617-.674z" clip-rule="evenodd"/></g><defs><clipPath id="a"><path fill="#fff" d="M0 0h28v28H0z"/></clipPath></defs></svg>
